svg/set/E01/M.svg

<?xml version="1.0" encoding="UTF-8" standalone="no"?>
<svg
   version="1.1"
   width="1024.0049"
   height="1008.7"
   id="svg18"
   xmlns:xlink="http://www.w3.org/1999/xlink"
   xmlns="http://www.w3.org/2000/svg"
   xmlns:svg="http://www.w3.org/2000/svg">
  <defs
     id="defs22" />
  <linearGradient
     id="linearGradient3848">
    <stop
       style="stop-color:#bf331c"
       offset="0"
       id="stop2" />
    <stop
       style="stop-color:#d3641c"
       offset="0.3"
       id="stop4" />
    <stop
       style="stop-color:#f6b91d"
       offset="0.5"
       id="stop6" />
    <stop
       style="stop-color:#d3641c"
       offset="0.7"
       id="stop8" />
    <stop
       style="stop-color:#bf331c"
       offset="1"
       id="stop10" />
  </linearGradient>
  <linearGradient
     x1="0.86276001"
     y1="14.451"
     x2="32.75"
     y2="14.438"
     id="linearGradient3854"
     xlink:href="#linearGradient3848"
     gradientUnits="userSpaceOnUse"
     gradientTransform="matrix(30.567,0,0,30.567,0.00253921,0)" />
  <path
     d="m 289.43254,0 -5.73,64.955 c -9.45,109.845 -72.58,162.045 -139.46,208.235 -33.44,23.1 -66.984001,43.49 -94.563001,68.78 -27.579,25.29 -49.34530979,58.11 -49.67699979,99.34 -0.31575,40.55 28.85299979,73.25 66.87099979,108.9 38.019001,35.64 87.769001,73.65 141.369001,115.58 107.2,83.86 226.69,183.75 282.75,299.94 l 21.01,42.97 21.01,-42.97 c 56.06,-116.19 175.55,-216.08 282.75,-299.94 53.6,-41.93 103.35,-79.94 141.37,-115.58 38.02,-35.65 67.16996,-68.35 66.86996,-108.9 -0.3,-41.23 -22.1,-74.05 -49.66996,-99.34 -27.58,-25.29 -61.13,-45.68 -94.57,-68.78 -66.88,-46.19 -130.01,-98.39 -139.46,-208.235 l -5.73,-64.955 -36.3,54.447 c -34.59,51.293 -42.78,100.853 -33.43,145.193 9.34,44.34 34.87,82.61 63.04,114.63 28.17,32.02 59.6,59.04 83.1,81.19 11.76,11.07 21.7,20.94 27.7,28.66 6.01,7.71 6.7,12.24 6.69,11.46 0,-2.23 -1.33,4.45 -8.6,13.37 -7.27,8.92 -18.78,20.13 -33.43,32.48 -29.29,24.71 -70.61,53.5 -112.71,82.15 -42.11,28.65 -84.76,57.26 -120.36,82.15 -26.72,18.67 -42.96,32.58 -58.27,47.76 -15.31,-15.18 -31.55,-29.09 -58.27,-47.76 -35.6,-24.89 -78.25,-53.5 -120.36,-82.15 -42.1,-28.65 -83.42,-57.44 -112.71,-82.15 -14.65,-12.35 -26.16,-23.56 -33.43,-32.48 -7.27,-8.92 -8.57,-15.6 -8.6,-13.37 0,0.78 0.68,-3.75 6.69,-11.46 6,-7.72 15.94,-17.59 27.7,-28.66 23.5,-22.15 54.93,-49.17 83.1,-81.19 28.17,-32.02 53.7,-70.29 63.04,-114.63 9.35,-44.34 1.16,-93.9 -33.43,-145.193 z m 222.57,4.7761 -21.01,53.4919 -141.38,356.302 -5.73,14.32 10.51,10.51 141.37,139.46 16.24,16.24 16.24,-16.24 141.37,-139.46 10.51,-10.51 -5.73,-14.32 -141.38,-356.302 z m 0,123.2239 114.63,289.43 -114.63,112.72 -114.63,-112.72 z"
     id="path14"
     style="stroke-width:30.567" />
  <path
     d="M 306.63254,66.865 C 286.28254,303.31 24.004539,305.99 22.933539,441.31 c -0.877,110.82 370.499001,269.08 489.069001,514.86 118.57,-245.78 489.89996,-404.04 489.09996,-514.86 -1.1,-135.32 -263.37996,-138 -283.72996,-374.445 -127.24,188.675 150.19,306.825 150.93,368.715 0.73,61.89 -320.17,235.23 -356.3,287.52 -36.13,-52.29 -357.03,-225.63 -356.3,-287.52 0.74,-61.89 278.17,-180.04 150.93,-368.715 z m 205.37,0 -141.37,356.295 141.37,139.46 141.37,-139.46 z"
     style="fill:url(#linearGradient3854);stroke-width:30.567"
     id="path16" />
</svg>

<?xml version="1.0" encoding="UTF-8" standalone="no"?>
<svg
   version="1.1"
   width="1024"
   height="1008.7"
   id="svg18"
   sodipodi:docname="M.svg"
   inkscape:version="1.1.1 (3bf5ae0d25, 2021-09-20)"
   xmlns:inkscape="http://www.inkscape.org/namespaces/inkscape"
   xmlns:sodipodi="http://sodipodi.sourceforge.net/DTD/sodipodi-0.dtd"
   xmlns:xlink="http://www.w3.org/1999/xlink"
   xmlns="http://www.w3.org/2000/svg"
   xmlns:svg="http://www.w3.org/2000/svg">
  <defs
     id="defs22" />
  <sodipodi:namedview
     id="namedview20"
     pagecolor="#ffffff"
     bordercolor="#666666"
     borderopacity="1.0"
     inkscape:pageshadow="2"
     inkscape:pageopacity="0.0"
     inkscape:pagecheckerboard="0"
     showgrid="false"
     inkscape:zoom="0.18513"
     inkscape:cx="-178.25"
     inkscape:cy="-540.15"
     inkscape:window-width="1920"
     inkscape:window-height="986"
     inkscape:window-x="-11"
     inkscape:window-y="-11"
     inkscape:window-maximized="1"
     inkscape:current-layer="svg18" />
  <linearGradient
     id="linearGradient3848">
    <stop
       style="stop-color:#bf331c"
       offset="0"
       id="stop2" />
    <stop
       style="stop-color:#d3641c"
       offset="0.3"
       id="stop4" />
    <stop
       style="stop-color:#f6b91d"
       offset="0.5"
       id="stop6" />
    <stop
       style="stop-color:#d3641c"
       offset="0.7"
       id="stop8" />
    <stop
       style="stop-color:#bf331c"
       offset="1"
       id="stop10" />
  </linearGradient>
  <linearGradient
     x1="0.86276"
     y1="14.451"
     x2="32.75"
     y2="14.438"
     id="linearGradient3854"
     xlink:href="#linearGradient3848"
     gradientUnits="userSpaceOnUse"
     gradientTransform="matrix(30.567,0,0,30.567,0,0)" />
  <path
     d="M 289.43,0 283.7,64.955 C 274.25,174.8 211.12,227 144.24,273.19 110.8,296.29 77.256,316.68 49.677,341.97 22.098,367.26 0.33169,400.08 0,441.31 c -0.31575,40.55 28.853,73.25 66.871,108.9 38.019,35.64 87.769,73.65 141.369,115.58 107.2,83.86 226.69,183.75 282.75,299.94 l 21.01,42.97 21.01,-42.97 c 56.06,-116.19 175.55,-216.08 282.75,-299.94 53.6,-41.93 103.35,-79.94 141.37,-115.58 38.02,-35.65 67.17,-68.35 66.87,-108.9 -0.3,-41.23 -22.1,-74.05 -49.67,-99.34 C 946.75,316.68 913.2,296.29 879.76,273.19 812.88,227 749.75,174.8 740.3,64.955 L 734.57,0 698.27,54.447 C 663.68,105.74 655.49,155.3 664.84,199.64 c 9.34,44.34 34.87,82.61 63.04,114.63 28.17,32.02 59.6,59.04 83.1,81.19 11.76,11.07 21.7,20.94 27.7,28.66 6.01,7.71 6.7,12.24 6.69,11.46 0,-2.23 -1.33,4.45 -8.6,13.37 -7.27,8.92 -18.78,20.13 -33.43,32.48 -29.29,24.71 -70.61,53.5 -112.71,82.15 -42.11,28.65 -84.76,57.26 -120.36,82.15 -26.72,18.67 -42.96,32.58 -58.27,47.76 -15.31,-15.18 -31.55,-29.09 -58.27,-47.76 -35.6,-24.89 -78.25,-53.5 -120.36,-82.15 -42.1,-28.65 -83.42,-57.44 -112.71,-82.15 -14.65,-12.35 -26.16,-23.56 -33.43,-32.48 -7.27,-8.92 -8.57,-15.6 -8.6,-13.37 0,0.78 0.68,-3.75 6.69,-11.46 6,-7.72 15.94,-17.59 27.7,-28.66 23.5,-22.15 54.93,-49.17 83.1,-81.19 28.17,-32.02 53.7,-70.29 63.04,-114.63 9.35,-44.34 1.16,-93.9 -33.43,-145.193 z M 512,4.7761 490.99,58.268 349.61,414.57 343.88,428.89 354.39,439.4 495.76,578.86 512,595.1 528.24,578.86 669.61,439.4 680.12,428.89 674.39,414.57 533.01,58.268 Z M 512,128 626.63,417.43 512,530.15 397.37,417.43 Z"
     id="path14"
     style="stroke-width:30.567" />
  <path
     d="M 306.63,66.865 C 286.28,303.31 24.002,305.99 22.931,441.31 22.054,552.13 393.43,710.39 512,956.17 630.57,710.39 1001.9,552.13 1001.1,441.31 1000,305.99 737.72,303.31 717.37,66.865 590.13,255.54 867.56,373.69 868.3,435.58 869.03,497.47 548.13,670.81 512,723.1 475.87,670.81 154.97,497.47 155.7,435.58 156.44,373.69 433.87,255.54 306.63,66.865 Z M 512,66.865 370.63,423.16 512,562.62 653.37,423.16 Z"
     style="fill:url(#linearGradient3854);stroke-width:30.567"
     id="path16" />
</svg>
